X: 20182
T: Jock O'Hazeldean
R: waltz
M: 3/4
K: Amajor
a2|e4c2|B4A2|A2c4|E4F2|A4A2|d4c2|c6|B4a2|
e4c2|B4A2|A2c4|E4F2|A4c2|B4A2|(A6|A4):|
c2|d4c2|d4e2|f4e2|a4f2|e4c2|B2c2e2|(f6|f2)g2a2|
e4c2|B4A2|A2c4|E4F2|A4c2|c2B3A|(A6|A4):|

